32x32/apps/appimagekit-cozydrive.svg

<svg height="32" width="32" xmlns="http://www.w3.org/2000/svg"><circle cx="16" cy="17" opacity=".2" r="14"/><circle cx="16" cy="16" fill="#207bf6" r="14"/><path d="m16 8a6 6 0 0 0 -5.96 5.338 6 6 0 0 0 -4.04 5.662 6 6 0 0 0 5.5 5.975v.025h9v-.025a6 6 0 0 0 5.5-5.975 6 6 0 0 0 -4.045-5.666 6 6 0 0 0 -5.955-5.334z" opacity=".2"/><g fill="#f4f4f7"><circle cx="16" cy="13" r="6"/><circle cx="12" cy="18" r="6"/><circle cx="20" cy="18" r="6"/><path d="m11.5 18.82h9v5.183h-9z"/></g><path d="m13.2 17.6s1.106 1.05 2.8 1.05 2.8-1.05 2.8-1.05" fill="none" stroke="#207bf6" stroke-width=".7"/><path d="m13.55 17.04-.113.702-.447.348m5.659-1.05.113.702.447.348" fill="none" stroke="#207bf6" stroke-linecap="round" stroke-linejoin="round" stroke-width=".7"/><path d="m16 2a14 14 0 0 0 -14 14 14 14 0 0 0 .021.586 14 14 0 0 1 13.979-13.586 14 14 0 0 1 13.979 13.414 14 14 0 0 0 .021-.414 14 14 0 0 0 -14-14z" fill="#f4f4f7" opacity=".2"/></svg>

<svg height="32" width="32" xmlns="http://www.w3.org/2000/svg">
    <circle cx="16" cy="17" opacity=".2" r="14"/>
    <circle cx="16" cy="16" fill="#207bf6" r="14"/>
    <path d="M16 8a6 6 0 0 0-5.96 5.338A6 6 0 0 0 6 19a6 6 0 0 0 5.5 5.975V25h9v-.025A6 6 0 0 0 26 19a6 6 0 0 0-4.045-5.666A6 6 0 0 0 16 8z" opacity=".2"/>
    <g fill="#f4f4f7">
        <circle cx="16" cy="13" r="6"/>
        <circle cx="12" cy="18" r="6"/>
        <circle cx="20" cy="18" r="6"/>
        <path d="M11.5 18.82h9v5.183h-9z"/>
    </g>
    <path d="M13.2 17.6s1.106 1.05 2.8 1.05 2.8-1.05 2.8-1.05" fill="none" stroke="#207bf6" stroke-width=".7"/>
    <path d="m13.55 17.04-.113.702-.447.348m5.659-1.05.113.702.447.348" fill="none" stroke="#207bf6" stroke-linecap="round" stroke-linejoin="round" stroke-width=".7"/>
    <path d="M16 2A14 14 0 0 0 2 16a14 14 0 0 0 .021.586A14 14 0 0 1 16 3a14 14 0 0 1 13.979 13.414A14 14 0 0 0 30 16 14 14 0 0 0 16 2z" fill="#f4f4f7" opacity=".2"/>
</svg>
